optimized/20/solid/wrench-screwdriver.svg

<svg xmlns="http://www.w3.org/2000/svg" viewBox="0 0 20 20">
  <path fill-rule="evenodd" d="M14.5 10C16.9853 10 19 7.98528 19 5.5C19 5.01783 18.9242 4.55338 18.7838 4.11791C18.6792 3.79367 18.2734 3.72683 18.0325 3.96772L15.3402 6.66002C15.2098 6.79041 15.0168 6.84163 14.8466 6.77074C14.1172 6.46695 13.5334 5.88351 13.2292 5.15431C13.1582 4.98403 13.2094 4.79088 13.3398 4.66042L16.0327 1.9676C16.2735 1.72672 16.2067 1.32092 15.8825 1.21636C15.4469 1.07588 14.9823 1 14.5 1C12.0147 1 10 3.01472 10 5.5C10 5.59783 10.0031 5.69494 10.0093 5.79122C10.065 6.66418 9.88174 7.59855 9.20974 8.15855L1.98017 14.1832C1.3591 14.7008 1 15.4674 1 16.2759C1 17.7804 2.21962 19 3.7241 19C4.53256 19 5.29925 18.6409 5.81681 18.0198L11.8414 10.7903C12.4014 10.1183 13.3358 9.93497 14.2088 9.99073C14.3051 9.99688 14.4022 10 14.5 10ZM5 16C5 16.5523 4.55228 17 4 17C3.44772 17 3 16.5523 3 16C3 15.4477 3.44772 15 4 15C4.55228 15 5 15.4477 5 16Z" clip-rule="evenodd"/>
  <path d="M14.5 11.5C14.6731 11.5 14.8445 11.4927 15.0138 11.4783L18.7678 15.2323C19.7441 16.2086 19.7441 17.7915 18.7678 18.7678C17.7915 19.7441 16.2086 19.7441 15.2323 18.7678L10.8216 14.3571L12.9938 11.7505C13.0455 11.6885 13.1413 11.6131 13.3357 11.5552C13.5378 11.4951 13.805 11.468 14.1132 11.4877C14.2413 11.4959 14.3702 11.5 14.5 11.5Z"/>
  <path d="M6.00003 4.58582L8.33056 6.91635C8.3027 6.95627 8.27496 6.98497 8.24946 7.00622L6.79994 8.21415L4.58582 6.00003H3.30905C3.11966 6.00003 2.94653 5.89303 2.86184 5.72364L1.1612 2.32237C1.06495 2.12987 1.10268 1.89739 1.25486 1.74521L1.74521 1.25486C1.89739 1.10268 2.12987 1.06495 2.32237 1.1612L5.72364 2.86184C5.89303 2.94653 6.00003 3.11966 6.00003 3.30905V4.58582Z"/>
</svg>

<svg xmlns="http://www.w3.org/2000/svg" viewBox="0 0 20 20" fill="currentColor" aria-hidden="true">
  <path fill-rule="evenodd" d="M14.5 10a4.5 4.5 0 004.284-5.882c-.105-.324-.51-.391-.752-.15L15.34 6.66a.454.454 0 01-.493.11 3.01 3.01 0 01-1.618-1.616.455.455 0 01.11-.494l2.694-2.692c.24-.241.174-.647-.15-.752a4.5 4.5 0 00-5.873 4.575c.055.873-.128 1.808-.8 2.368l-7.23 6.024a2.724 2.724 0 103.837 3.837l6.024-7.23c.56-.672 1.495-.855 2.368-.8.096.007.193.01.291.01zM5 16a1 1 0 11-2 0 1 1 0 012 0z" clip-rule="evenodd"/>
  <path d="M14.5 11.5c.173 0 .345-.007.514-.022l3.754 3.754a2.5 2.5 0 01-3.536 3.536l-4.41-4.41 2.172-2.607c.052-.063.147-.138.342-.196.202-.06.469-.087.777-.067.128.008.257.012.387.012zM6 4.586l2.33 2.33a.452.452 0 01-.08.09L6.8 8.214 4.586 6H3.309a.5.5 0 01-.447-.276l-1.7-3.402a.5.5 0 01.093-.577l.49-.49a.5.5 0 01.577-.094l3.402 1.7A.5.5 0 016 3.31v1.277z"/>
</svg>
